content/pages/careers/perky-health.svg

<svg height="116" viewBox="0 0 78 116" width="78" xmlns="http://www.w3.org/2000/svg" xmlns:xlink="http://www.w3.org/1999/xlink"><mask id="a" fill="#fff"><path d="m1.1568452.71977676h43.4688691v27.30298924h-43.4688691z" fill="#fff" fill-rule="evenodd"/></mask><g fill="none" fill-rule="evenodd" transform="translate(-1 -1)"><path d="m1.78042857 2.94284167c11.15428573 5.37766666 14.01571433 20.37875003 26.10428573 24.32841663 7.0385714 2.29925 13.7757143-.8145833 16.6328571-7.4658333.6071429-1.41525-1.4928571-2.6505833-2.1071428-1.21975-5.26 12.2470833-18.2442857 5.5731667-24.37-2.43525-4.5042857-5.8876667-8.09285717-11.95241667-15.02857146-15.29716667-1.40571428-.67716666-2.64428571 1.40816667-1.23142857 2.08958334" fill="#11100d" mask="url(#a)" transform="translate(34.285714 .808633)"/><path d="m57.4327143 32.538c0 1.3571667-1.11 2.4593333-2.48 2.4593333s-2.48-1.1021666-2.48-2.4593333c0-1.3585833 1.11-2.4593333 2.48-2.4593333s2.48 1.10075 2.48 2.4593333" fill="#11100d"/><path d="m39.7422857 32.538c0 1.3571667-1.11 2.4593333-2.48 2.4593333s-2.48-1.1021666-2.48-2.4593333c0-1.3585833 1.11-2.4593333 2.48-2.4593333s2.48 1.10075 2.48 2.4593333" fill="#11100d"/><path d="m25.5764286 84.6516417.89 29.3632503 6.7871428 1.67025" stroke="#11100d" stroke-linecap="round" stroke-linejoin="round" stroke-width="2.577047"/><path d="m50.9025714 84.6516417.8885715 29.3632503 6.7885714 1.67025" stroke="#11100d" stroke-linecap="round" stroke-linejoin="round" stroke-width="2.577047"/><path d="m73.1204286 44.8992667c-5.02-43.34008337-35.1428572-42.18975003-35.1428572-42.18975003s-1.8571428-.06941667-4.7228571.48733333v8.5014167h-7.6785714l-2.12 7.78175h-5.7371429l-4.3585714 6.647-4.6214286-2.8871667c-2.72 5.576-4.86 12.64375-5.90428571 21.6594167 0 0-3.86142858 41.4219166 35.14285711 41.4219166 39.0042857 0 35.1428572-41.4219166 35.1428572-41.4219166z" stroke="#11100d" stroke-linecap="round" stroke-linejoin="round" stroke-width="2.577047"/><path d="m29.4154286 41.719275h36.0571428" stroke="#11100d" stroke-linecap="round" stroke-linejoin="round" stroke-width="2.577047"/><path d="m8.03471429 50.7145417h13.82571431l.1071428 14.2091666 16.4242857.28475c3.5 0 6.2828572 2.9126667 6.0957143 6.3778334-.1728571 3.213-2.8514285 5.7304166-6.0957143 5.7304166h-20.96c-4.9528571 0-8.9928571-3.9355-9.08142853-8.8470833z" fill="#f7f7f7"/><path d="m8.03471429 50.7145417h13.82571431l.1071428 14.2091666 16.4242857.28475c3.5 0 6.2828572 2.9126667 6.0957143 6.3778334-.1728571 3.213-2.8514285 5.7304166-6.0957143 5.7304166h-20.96c-4.9528571 0-8.9928571-3.9355-9.08142853-8.8470833z" stroke="#11100d" stroke-linecap="round" stroke-linejoin="round" stroke-width="2.282689"/><g transform="translate(12.857143 44.7253)"><path d="m1.17957143 1.01164167v4.97816666" fill="#f7f7f7"/><path d="m1.17957143 1.01164167v4.97816666" stroke="#11100d" stroke-linecap="round" stroke-linejoin="round" stroke-width="2.282689"/></g><g transform="translate(7.142857 64.558633)"><path d="m1.20814286 3.91070833 13.61714284-3.5445-2.7957143 12.39299997" fill="#f7f7f7"/><path d="m1.20814286 3.91070833 13.61714284-3.5445-2.7957143 12.39299997" stroke="#11100d" stroke-linecap="round" stroke-linejoin="round" stroke-width="2.282689"/></g><path d="m33.3551429 65.1641167c-1.7842858 1.0695833-.1642858 2.822-.1642858 2.822s-2.2642857-.782-2.5457142 1.2665c-.4314286 3.1209166 6.6171428 1.3869166 6.6171428 1.3869166s-1.1885714-7.1045833-3.9071428-5.4754166" fill="#11100d" opacity=".1"/><path d="m73.2257143 50.7145417v39.94575h-9.2428572" stroke="#11100d" stroke-linecap="round" stroke-linejoin="round" stroke-width="2.577047"/><path d="m68.1775714 84.6516417 5.0485715 6.0080833" stroke="#11100d" stroke-linecap="round" stroke-linejoin="round" stroke-width="2.577047"/><g fill="#11100d"><path d="m60.4834286 34.77775c0 2.0541667-1.6785715 3.71875-3.75 3.71875-2.0714286 0-3.75-1.6645833-3.75-3.71875s1.6785714-3.71875 3.75-3.71875c2.0714285 0 3.75 1.6645833 3.75 3.71875" opacity=".1"/><path d="m63.3841429 76.7431-8.4585715-9.8670833c-.29-.3371667.1614286-.799.5114286-.52275l10.0357143 7.9120833z" opacity=".1"/><path d="m67.05 71.9390417-8.4585714-9.8670834c-.29-.3371666.1614285-.799.5114285-.52275l10.0357143 7.9120834z" opacity=".1"/><path d="m69.8845714 67.1349833-8.4585714-9.8670833c-.29-.3371667.1614286-.799.5114286-.52275l10.0357143 7.9120833z" opacity=".1"/></g></g></svg>

<?xml version="1.0" encoding="UTF-8"?>
<svg width="78px" height="116px" viewBox="0 0 78 116" version="1.1" xmlns="http://www.w3.org/2000/svg" xmlns:xlink="http://www.w3.org/1999/xlink">
    <!-- Generator: Sketch 52.5 (67469) - http://www.bohemiancoding.com/sketch -->
    <title>perky-health</title>
    <desc>Created with Sketch.</desc>
    <defs>
        <polygon id="path-1" points="1.1568452 0.719776761 44.6257143 0.719776761 44.6257143 28.022766 1.1568452 28.022766"></polygon>
        <polygon id="path-3" points="1.42857143 0.708333333 2.14285714 0.708333333 2.14285714 1.41666667 1.42857143 1.41666667"></polygon>
        <polygon id="path-5" points="1.42857143 0.708333333 2.14285714 0.708333333 2.14285714 1.41666667 1.42857143 1.41666667"></polygon>
        <polygon id="path-7" points="1.42857143 0.708333333 2.14285714 0.708333333 2.14285714 1.41666667 1.42857143 1.41666667"></polygon>
        <polygon id="path-9" points="1.42857143 0.708333333 2.14285714 0.708333333 2.14285714 1.41666667 1.42857143 1.41666667"></polygon>
        <polygon id="path-11" points="1.42857143 0.708333333 2.14285714 0.708333333 2.14285714 1.41666667 1.42857143 1.41666667"></polygon>
        <polygon id="path-13" points="1.42857143 0.708333333 2.14285714 0.708333333 2.14285714 1.41666667 1.42857143 1.41666667"></polygon>
        <polygon id="path-15" points="1.42857143 0.708333333 2.14285714 0.708333333 2.14285714 1.41666667 1.42857143 1.41666667"></polygon>
        <polygon id="path-17" points="1.42857143 0.708333333 2.14285714 0.708333333 2.14285714 1.41666667 1.42857143 1.41666667"></polygon>
    </defs>
    <g id="✔--Careers" stroke="none" stroke-width="1" fill="none" fill-rule="evenodd">
        <g id="Careers__vertical" transform="translate(-413.000000, -3933.000000)">
            <g id="perks" transform="translate(80.000000, 3930.000000)">
                <g id="insurance" transform="translate(332.000000, 2.000000)">
                    <g id="perky-health">
                        <g id="Group-3" transform="translate(34.285714, 0.808633)">
                            <mask id="mask-2" fill="white">
                                <use xlink:href="#path-1"></use>
                            </mask>
                            <g id="Clip-2"></g>
                            <path d="M1.78042857,2.94284167 C12.9347143,8.32050833 15.7961429,23.3215917 27.8847143,27.2712583 C34.9232857,29.5705083 41.6604286,26.456675 44.5175714,19.805425 C45.1247143,18.390175 43.0247143,17.1548417 42.4104286,18.585675 C37.1504286,30.8327583 24.1661429,24.1588417 18.0404286,16.150425 C13.5361429,10.2627583 9.94757143,4.19800833 3.01185714,0.853258333 C1.60614286,0.176091667 0.367571429,2.261425 1.78042857,2.94284167" id="Fill-1" fill="#11100D" mask="url(#mask-2)"></path>
                        </g>
                        <path d="M57.4327143,32.538 C57.4327143,33.8951667 56.3227143,34.9973333 54.9527143,34.9973333 C53.5827143,34.9973333 52.4727143,33.8951667 52.4727143,32.538 C52.4727143,31.1794167 53.5827143,30.0786667 54.9527143,30.0786667 C56.3227143,30.0786667 57.4327143,31.1794167 57.4327143,32.538" id="Fill-4" fill="#11100D"></path>
                        <path d="M39.7422857,32.538 C39.7422857,33.8951667 38.6322857,34.9973333 37.2622857,34.9973333 C35.8922857,34.9973333 34.7822857,33.8951667 34.7822857,32.538 C34.7822857,31.1794167 35.8922857,30.0786667 37.2622857,30.0786667 C38.6322857,30.0786667 39.7422857,31.1794167 39.7422857,32.538" id="Fill-6" fill="#11100D"></path>
                        <polyline id="Stroke-8" stroke="#11100D" stroke-width="2.57704692" stroke-linecap="round" stroke-linejoin="round" points="25.5764286 84.6516417 26.4664286 114.014892 33.2535714 115.685142"></polyline>
                        <polyline id="Stroke-10" stroke="#11100D" stroke-width="2.57704692" stroke-linecap="round" stroke-linejoin="round" points="50.9025714 84.6516417 51.7911429 114.014892 58.5797143 115.685142"></polyline>
                        <g id="Group-14" transform="translate(0.000000, 115.558633)">
                            <mask id="mask-4" fill="white">
                                <use xlink:href="#path-3"></use>
                            </mask>
                            <g id="Clip-13"></g>
                            <path d="" id="Fill-12" fill="#11100D" mask="url(#mask-4)"></path>
                        </g>
                        <g id="Group-17" transform="translate(0.000000, 115.558633)">
                            <mask id="mask-6" fill="white">
                                <use xlink:href="#path-5"></use>
                            </mask>
                            <g id="Clip-16"></g>
                            <path d="" id="Fill-15" fill="#11100D" mask="url(#mask-6)"></path>
                        </g>
                        <g id="Group-20" transform="translate(0.000000, 115.558633)">
                            <mask id="mask-8" fill="white">
                                <use xlink:href="#path-7"></use>
                            </mask>
                            <g id="Clip-19"></g>
                            <path d="" id="Fill-18" fill="#11100D" mask="url(#mask-8)"></path>
                        </g>
                        <g id="Group-23" transform="translate(0.000000, 115.558633)">
                            <mask id="mask-10" fill="white">
                                <use xlink:href="#path-9"></use>
                            </mask>
                            <g id="Clip-22"></g>
                            <path d="" id="Fill-21" fill="#11100D" mask="url(#mask-10)"></path>
                        </g>
                        <g id="Group-26" transform="translate(0.000000, 115.558633)">
                            <mask id="mask-12" fill="white">
                                <use xlink:href="#path-11"></use>
                            </mask>
                            <g id="Clip-25"></g>
                            <path d="" id="Fill-24" fill="#11100D" mask="url(#mask-12)"></path>
                        </g>
                        <g id="Group-29" transform="translate(0.000000, 115.558633)">
                            <mask id="mask-14" fill="white">
                                <use xlink:href="#path-13"></use>
                            </mask>
                            <g id="Clip-28"></g>
                            <path d="" id="Fill-27" fill="#11100D" mask="url(#mask-14)"></path>
                        </g>
                        <g id="Group-32" transform="translate(0.000000, 115.558633)">
                            <mask id="mask-16" fill="white">
                                <use xlink:href="#path-15"></use>
                            </mask>
                            <g id="Clip-31"></g>
                            <path d="" id="Fill-30" fill="#11100D" mask="url(#mask-16)"></path>
                        </g>
                        <g id="Group-35" transform="translate(0.000000, 115.558633)">
                            <mask id="mask-18" fill="white">
                                <use xlink:href="#path-17"></use>
                            </mask>
                            <g id="Clip-34"></g>
                            <path d="" id="Fill-33" fill="#11100D" mask="url(#mask-18)"></path>
                        </g>
                        <path d="M73.1204286,44.8992667 C68.1004286,1.55918333 37.9775714,2.70951667 37.9775714,2.70951667 C37.9775714,2.70951667 36.1204286,2.6401 33.2547143,3.19685 L33.2547143,11.6982667 L25.5761429,11.6982667 L23.4561429,19.4800167 L17.719,19.4800167 L13.3604286,26.1270167 L8.739,23.23985 C6.019,28.81585 3.879,35.8836 2.83471429,44.8992667 C2.83471429,44.8992667 -1.02671429,86.3211833 37.9775714,86.3211833 C76.9818571,86.3211833 73.1204286,44.8992667 73.1204286,44.8992667 Z" id="Stroke-36" stroke="#11100D" stroke-width="2.57704692" stroke-linecap="round" stroke-linejoin="round"></path>
                        <path d="M29.4154286,41.719275 L65.4725714,41.719275" id="Stroke-38" stroke="#11100D" stroke-width="2.57704692" stroke-linecap="round" stroke-linejoin="round"></path>
                        <path d="M8.03471429,50.7145417 L21.8604286,50.7145417 L21.9675714,64.9237083 L38.3918571,65.2084583 C41.8918571,65.2084583 44.6747143,68.121125 44.4875714,71.5862917 C44.3147143,74.7992917 41.6361429,77.3167083 38.3918571,77.3167083 L17.4318571,77.3167083 C12.479,77.3167083 8.439,73.3812083 8.35042857,68.469625 L8.03471429,50.7145417 Z" id="Fill-40" fill="#F7F7F7"></path>
                        <path d="M8.03471429,50.7145417 L21.8604286,50.7145417 L21.9675714,64.9237083 L38.3918571,65.2084583 C41.8918571,65.2084583 44.6747143,68.121125 44.4875714,71.5862917 C44.3147143,74.7992917 41.6361429,77.3167083 38.3918571,77.3167083 L17.4318571,77.3167083 C12.479,77.3167083 8.439,73.3812083 8.35042857,68.469625 L8.03471429,50.7145417 Z" id="Stroke-42" stroke="#11100D" stroke-width="2.28268901" stroke-linecap="round" stroke-linejoin="round"></path>
                        <g id="Group-47" transform="translate(12.857143, 44.725300)">
                            <path d="M1.17957143,1.01164167 L1.17957143,5.98980833" id="Fill-44" fill="#F7F7F7"></path>
                            <path d="M1.17957143,1.01164167 L1.17957143,5.98980833" id="Stroke-46" stroke="#11100D" stroke-width="2.28268901" stroke-linecap="round" stroke-linejoin="round"></path>
                        </g>
                        <g id="Group-51" transform="translate(7.142857, 64.558633)">
                            <polyline id="Fill-48" fill="#F7F7F7" points="1.20814286 3.91070833 14.8252857 0.366208333 12.0295714 12.7592083"></polyline>
                            <polyline id="Stroke-50" stroke="#11100D" stroke-width="2.28268901" stroke-linecap="round" stroke-linejoin="round" points="1.20814286 3.91070833 14.8252857 0.366208333 12.0295714 12.7592083"></polyline>
                        </g>
                        <path d="M33.3551429,65.1641167 C31.5708571,66.2337 33.1908571,67.9861167 33.1908571,67.9861167 C33.1908571,67.9861167 30.9265714,67.2041167 30.6451429,69.2526167 C30.2137143,72.3735333 37.2622857,70.6395333 37.2622857,70.6395333 C37.2622857,70.6395333 36.0737143,63.53495 33.3551429,65.1641167" id="Fill-52" fill="#11100D" opacity="0.100000001"></path>
                        <polyline id="Stroke-54" stroke="#11100D" stroke-width="2.57704692" stroke-linecap="round" stroke-linejoin="round" points="73.2257143 50.7145417 73.2257143 90.6602917 63.9828571 90.6602917"></polyline>
                        <path d="M68.1775714,84.6516417 L73.2261429,90.659725" id="Stroke-56" stroke="#11100D" stroke-width="2.57704692" stroke-linecap="round" stroke-linejoin="round"></path>
                        <path d="M60.4834286,34.77775 C60.4834286,36.8319167 58.8048571,38.4965 56.7334286,38.4965 C54.662,38.4965 52.9834286,36.8319167 52.9834286,34.77775 C52.9834286,32.7235833 54.662,31.059 56.7334286,31.059 C58.8048571,31.059 60.4834286,32.7235833 60.4834286,34.77775" id="Fill-58" fill="#11100D" opacity="0.100000001"></path>
                        <path d="M63.3841429,76.7431 L54.9255714,66.8760167 C54.6355714,66.53885 55.087,66.0770167 55.437,66.3532667 L65.4727143,74.26535 L63.3841429,76.7431 Z" id="Fill-60" fill="#11100D" opacity="0.100000001"></path>
                        <path d="M67.05,71.9390417 L58.5914286,62.0719583 C58.3014286,61.7347917 58.7528571,61.2729583 59.1028571,61.5492083 L69.1385714,69.4612917 L67.05,71.9390417 Z" id="Fill-62" fill="#11100D" opacity="0.100000001"></path>
                        <path d="M69.8845714,67.1349833 L61.426,57.2679 C61.136,56.9307333 61.5874286,56.4689 61.9374286,56.74515 L71.9731429,64.6572333 L69.8845714,67.1349833 Z" id="Fill-64" fill="#11100D" opacity="0.100000001"></path>
                    </g>
                </g>
            </g>
        </g>
    </g>
</svg>
